icons/arrow-right-24.svg

<svg xmlns="http://www.w3.org/2000/svg" width="24" height="24" viewBox="0 0 24 24"><path d="M13.22 19.03a.75.75 0 010-1.06L18.19 13H3.75a.75.75 0 010-1.5h14.44l-4.97-4.97a.749.749 0 01.326-1.275.749.749 0 01.734.215l6.25 6.25a.75.75 0 010 1.06l-6.25 6.25a.75.75 0 01-1.06 0z"/></svg>

<svg xmlns="http://www.w3.org/2000/svg" width="24" height="24" viewBox="0 0 24 24">
  <defs/>
  <path d="M13.22,19.03 C12.928,18.737 12.928,18.263 13.22,17.97 L18.19,13 L3.75,13 C3.336,13 3,12.664 3,12.25 C3,11.836 3.336,11.5 3.75,11.5 L18.19,11.5 L13.22,6.53 C13.019,6.343 12.937,6.061 13.005,5.796 C13.072,5.53 13.28,5.322 13.546,5.255 C13.811,5.187 14.093,5.269 14.28,5.47 L20.53,11.72 C20.822,12.013 20.822,12.487 20.53,12.78 L14.28,19.03 C13.987,19.322 13.513,19.322 13.22,19.03 Z"/>
</svg>
